X:1
T:G Major Daniel Belknap, 1806
T:Isaac Watts, 1709 (Hymn 87, Book 1) 88. 88. (L. M.)
T:Monson
T:Treble-Tenor-Bass from The Village Compilation , 1806; Counter by B. C. Johnston, 2015.
%%score [ 1 2 3 4 ]
L:1/8
M:4/4
K:G
V:1 treble nm="Treble" snm="Tr."
V:2 treble nm="Counter" snm="C."
V:3 treble-8 nm="Tenor" snm="T."
V:4 bass nm="Bass" snm="B."
V:1
 B4 d2 d2 | d6 e2 | (d2 c2) (B2 A2) | B6 Bc | d2 B2 G2 G2 | A4 G4 | F6 GA | B2 d2 d2 Bd | %8
 e2 e2 e2 GA | B2 B2 B2 A2 | G4 F4 | G8 | z8 | z8 | z8 | z8 | z8 | z8 | z8 | z8 | z8 | z8 | %22
 B4 d2 B2 | (GBde d2) g2 | d4 c4 | B8 |] %26
V:2
"^1. Thus saith the high and  lofty     one,    \"I    sit upon my holy throne;  My name is God,  I dwell on high,  Dwell" B4 G2 G2 | %1
 A6 G2 | (D2 E2) (G2 A2) | B6 GA | G2 B2 G2 D2 | F4 G4 | A6 BA | G2 B2 d2 BG | F2 E2 F2 dc | %9
"^1. in my own  e  –  ter   –   ni      –      ty.              Yet  I descend to worlds below,  On earth I have a mansion too;       The" B2 B2 ed c2 | %10
 B4 A4 | G8 | z8 | z8 | z4 z2 B2 | c2 c2 B2 A2 | GA Bc d4- | d4 z4 | %18
"^1. humble  spirit    and  contrite     Is     an  abode  of     my   delight,        Is    an  a  –  bode _______ of     my  de – light." z8 | %19
 z4 z2 [Fd]2 | [Ee]2 [Fd]2 [Ee]2 [Gd]2 | cB cB c4 | B4 B2 B2 | (BGdB) G2 c2 | B4 c4 | B8 |] %26
V:3
"^2. \"The humble soul my words revive,   I bid the mourning sinner live,  Heal all the broken hearts I find, And" G4 d2 B2 | %1
 A6 c2 | (B2 A2) (G2 F2) | G6 GA | B2 d2 g2 d2 | c4 B4 | A6 dc | B2 B2 B2 gd | c2 B2 c2 d2 | %9
"^2.  ease the sorrows of _______  the  mind.\"        O  may thy pardoning grace be nigh,                                                         Thus" e2 e2 ed ce | %10
 (d3 BcB) A2 | G8 | z4 g4 | f3 e d2 d2 | e2 e2 d2"^Lest we should faint, despair, and die!" d2 | %15
 e2 e2 d2 c2 | BA Bc d4- | d4 B4 | %18
"^2. shall our better thoughts approve The methods of thy chastening love, The methods of ___   thy chastening love." BA Bc d2 d2 | %19
 ed ef g2 f2 | g2 f2 g2 d2 | ed ef g4 | d4 B2 G2 | (dBGB d2) c2 | B4 A4 | G8 |] %26
V:4
 G,4 G,2 G,2 | F,6 G,2 | D,4 D,4 | G,6 D,2 | G,2 G,2 G,2 B,2 | A,4 G,4 | D,6 B,A, | %7
 G,2 G,2 G,2 B,2 | A,2 G,2 A,2 B,2 | E,2 E,2 E,2 F,2 | G,4 D,4 | G,8 | z4 G,4 | D3 C B,2 B,2 | %14
 C2 C2 B,2 B,2 | C2 C2 B,2 A,2 | G,F, G,A, D,4- | D,4 G,4 | G,F, G,A, B,2 B,2 | CB, CD E2 D2 | %20
 E2 D2 E2 B,2 | CB, CD E4 | G,4 D,2 C,2 | (B,,G,, D,2 G,2) C,2 | D,4 D,4 | G,,8 |] %26

